X:1
T:Quartet in E-flat Major
T:Quartet in E-flat Major
T:"The Joke" IV 
T:Arr. K. Millson
T:2020
T:2020
T:2020
T:2020
T:2020
T:2020
T:2020
T:2020
C:Arr. K. Millson
Z:2020
%%score [ 1 2 3 4 ]
L:1/8
Q:3/8=144
M:6/8
K:Eb
V:1 treble transpose=3 nm="E♭ Trumpet"
V:2 treble transpose=-2 nm="B♭ Trumpet 2"
V:3 treble transpose=-7 nm="Horn in F"
V:4 bass nm="Euphonium"
V:1
[K:C]!p! e | (e2 f) .d.e.f | ge.c .c z d | (d2 e) .c.B.A | (G^F).G .G z ^G | (^G2 A) .F.E.D | %6
 .G.A.B .c.d.e | .f2 z (dc)B | c2 z z2 d | (d2 e) (.B.c.^c) | (dB).G .G z g | (g2 ^f) (.g.=f.d) | %12
 (ge).c .c z g | (^ga).a (a=g).g | (g3 f2) d | (de).e (ef).d | (c3 B2) z |!>(! (_E6!>)! | D6) | %19
!>(! (_E6!>)! | D6) |!>(! (_E6!>)! | D2) z z2!p! G | (GA) z z2 A | (AB) z z2 .B | %25
!<(! (Bc).c (c^c).c | (^cd).d (de).e!<)! |!mf!!>(! (e6 | f2)!>)! z z2!p! e | (e2 f) .d.e.f | %30
 ge.c .c z d | (d2 e) .c.B.A | (G^F).G .G z ^G | (^G2 A) .F.E.D | .G.A.B .c.d.e | .f2 z (dc)B |1 %36
 c2 z z z2 :|2 c2 z z2!f! c || (_Bc).A (GA).F | (EF).G G2 c | (_Bc).A (GA).F | (EF).G z z2 | z6 | %43
 z6 | F3- F2 z | z6 | z6 | z6 | F3- F2 z | z6 | D3- D2 z | z6 | z6 | z6 | F3- F2 c | %55
 (Bc).d (GA).B | (cd).e (cd).c | (Bc).d (GA).B | (cd).e (cd).e | (Bc).d .G.A.B | .c.d.e .A.B.c | %61
 .d.e.f .B.c.d | .e.f.g .c.d.e | .f.g.a .g.a.f | .e.d.c c3 | (B3 c3) | (B3 c3) | (B3 c3) | %68
 (B3 c3) | g2 z4 |!p! ^f2 z4 | f2 z4 | z2 z z2!p! e | (e2 f) .d.e.f | ge.c .c z d | (d2 e) .c.B.A | %76
 (G^F).G .G z ^G | (^G2 A) .F.E.D | .G.A.B .c.d.e | .f2 z (dc)B | c2 z z2 d | (d2 e) (.B.c.^c) | %82
 (dB).G .G z g | (g2 ^f) (.g.=f.d) | (ge).c .c z g | (^ga).a (a=g).g | (g3 f2) d | (de).e (ef).d | %88
 (c3 B2) z |!>(! (_E6!>)! | D6) |!>(! (_E6!>)! | D6) |!>(! (_E6!>)! | D2) z z2!p! G | (GA) z z2 A | %96
 (AB) z z2 .B |!<(! (Bc).c (c^c).c | (^cd).d (de).e!<)! |!mf!!>(! (e6 | f2)!>)! z z2!p! e | %101
 (e2 f) .d.e.f | ge.c .c z d | (d2 e) .c.B.A | (G^F).G .G z ^G | (^G2 A) .F.E.D | .G.A.B .c.d.e | %107
 .f2 z (dc)B | !tenuto!c2 z2 z!f! c | (Bc).A (GA).F | (EF).G G2 c | (Bc).A (GA).f | (ef)g ggg | %113
 ggg ggg | GGG GGG | GGG GGG | GGG GGG | GFF F2 z | z2 z z2 E | EDD D2 z | z2 z z2 c | %121
 .B.G.g .f.d.g | .e.c.G .E.C.c | .B.G.g .f.d.g | .e.c.G .E.C.e | .f.e.d .^c.d.e | .g.f.e .d.f.g | %127
 .a.g.f .a.g.f | .a.g.f .e.d.c | .B.D.^F .G.B.G | .^F.A.F .c.A.F | .G.B,.D .G.B.G | %132
 .^F.A.F .c.a.^f | g2 z z2!p! ^f | (^fg) z z2 f | (^fg) z z2 f | (^fg) z z2 z | z2 z z2!pp! e | %138
 (ef) z z2 e | (ef) z z2 e | (!fermata!e6 | !fermata!f3) !fermata!z z!p! e | (e2 f) .d.e.f | %143
 ge.c .c z d | (d2 e) .c.B.A | (G^F).G .G z ^G | (^G2 A) .F.E.D | .G.A.B .c.d.e | .f2 z (dc)B | %149
 !tenuto!c2 z2 z z/[Q:1/4=70]!f!!>(! A/ |[M:2/4] A2!>)!!p! (G/4F/) z/4 (E/4D/) z/4 | %151
 G z z3/2!f!!>(! F/ | F2!>)!!p! (E/4D/) z/4 (C/4B,/) z/4 |[M:6/8] C z4!p![Q:3/8=144] e | %154
 (e2 f) .d.e.f | ge.c .c z z | z6 | z2 z z2 d | (d2 e) .c.B.A | (G^F).G .G z z | z6 | z2 z z2 ^G | %162
 (^G2 A) .F.E.D | .G.A.B .c z z | z6 | z2 z z2 e | (e2 f) .d.c.B | c2 z4 | z6 | z6 | z6 | %171
 z2 z z2!pp! e | (e2 f) def | gec c z z |] %174
V:2
[K:F] z |!p! .c2 z .B2 z | .A2 z4 | .e2 z .=B2 z | .G2 z4 | (F3 E3) | .F2 z4 | .d2 z (BA)G | %8
 F2 z z2 e | (e2 f) (.c.d.^d) | e2 z z2 A | (A2 ^G) (A=GE) | A2 z z2 F | (F3 ^F3) | G2 z z2 c | %15
 c3- (cd)B | (A3 G2)!mp! c | .=B.c.d .e.f.B | .c.e.g (=bc').c | .=B.c.d .e.f.B | .c.e.g (=bc').c | %21
 .=B.c.d .e.f.B | c2 z z2!p! E | (EF) z z2 F | (FG) z z2 .c |!<(! (cd).d (d^d).d | %26
 (^de).e (ef).f!<)! |!mf!!>(! (f6 | g2)!>)! z3 z |!p! .c2 z .B2 z | .A2 z4 | .e2 z .=B2 z | %32
 .G2 z4 | (F3 E3) | .F2 z4 | .d2 z (BA)G |1 F2 z z z2 :|2 F3!f! d3 || (c2 B) (A2 G) | FGA A2 d | %40
 (c2 B) (A2 G) | (F3 _E3) | D3- D2 B | (AB).c (FG).A | D3 D2 B | (AB).c (FG).A | (Bc).d (Bc).d | %47
 (AB).c (FG).A | D3 D2 B | (AB).c (DE).^F | B,3- B,2 G | (^FG).A (DE).F | (GA).B (GA).B | %53
 (^FG).A (DE).F | G3- G2 (B, | B3) (B3 | A3) (A3 | B3) (B3 | A3) (A3 | B3) (B3 | A3) .F.G.A | %61
 B3 .G.A.B | c3 .A.B.c | F3 G3 | A3 (fd).B | (ce).c (fd).=B | (ce).c (fd).=B | (cd).e (=Bc).d | %68
 (cd).e (=Bc).d | e2 z4 |!p! f2 z4 | g2 z4 | z4 z z |!p! .c2 z .B2 z | .A2 z4 | .e2 z .=B2 z | %76
 .G2 z4 | (F3 E3) | .F2 z4 | .d2 z (BA)G | F2 z z z e | (e2 f) (.c.d.^d) | e2 z z2 A | %83
 (A2 ^G) (A=GE) | A2 z z2 F | (F3 ^F3) | G2 z z2 c | c3- (cd)B | (A3 G2)!mp! c | .=B.c.d .e.f.B | %90
 .c.e.g (=bc').c | .=B.c.d .e.f.B | .c.e.g (=bc').c | .=B.c.d .e.f.B | c2 z z2!p! E | (EF) z z2 F | %96
 (FG) z z2 .c |!<(! (cd).d (d^d).d | (^de).e (ef).f!<)! |!mf!!>(! (f6 | g2)!>)! z3 z | %101
!p! .c2 z .B2 z | .A2 z4 | .e2 z .=B2 z | .G2 z4 | (F3 E3) | .F2 z4 | .d2 z (BA)G | %108
 !tenuto!F2 z z z2 | z6 |!f! !tenuto!D2 z4 | z6 | D2 z z2 a | (ga).f (ef).d | (cd).B A2 c | c6 | %116
 C2 z4 | (cd).e (fd).B | (BA).A A2 A | (AB).c (dB).G | (GF)F F2 z | G2 z G2 z | F2 z4 | e2 z e2 z | %124
 f2 z4 | z2 z c2 z | z2 z d2 z | z2 z g2 z | g2 z f2 z | e6 | f6 | e6 | f6 | e2 z z2!p! f | %134
 (fe) z z2 f | (fe) z z2 f | (fe) z4 | z2 z z2!pp! ^f | (^fg) z z2 f | (^fg) z z2 f | %140
 (!fermata!^f6 | !fermata!g3) !fermata!z z z |!p! .c2 z .B2 z | .A2 z4 | .e2 z .=B2 z | .G2 z4 | %146
 (F3 E3) | .F2 z4 | .d2 z (BA)G | !tenuto!F2 z2 z z/!f!!>(! B/ |[M:2/4] (B2!>)!!p! G) z | %151
 F z z3/2!f!!>(! D/ | (D2!>)!!p! B,) z |[M:6/8] A, z z3 z |!p! .c2 z .B2 z | .A2 z4 | z6 | z6 | %158
 .e2 z .=B2 z | .G2 z4 | z6 | z6 | (F3 E3) | .F2 z4 | z6 | z6 | d3 B3 | A2 z4 | z6 | z6 | z6 | z6 | %172
!pp! .c2 z .B2 z | .A2 z4 |] %174
V:3
[K:Bb] z |!p! .d2 z .c2 z | .B2 z4 | .f2 z .c2 z | .A2 z4 | (E3 F3) | .F2 z4 | .E2 z .F2 z | %8
 B,2 z z2 z | f6- | f2 z4 | B6- | B2 z z2 B | B3 g3- | g2 z z2 f | B3 E3 | F3 A3 |!>(! (B6!>)! | %18
 A6) |!>(! (B6!>)! | A6) |!>(! B6!>)! |!>(! !>!F6-!>)! |!p! F6- | F6- |!<(! F6- | F6-!<)! | %27
!mf!!>(! F6- | F2!>)! z3 z |!p! .d2 z .c2 z | .B2 z4 | .f2 z .c2 z | .A2 z4 | (E3 F3) | .F2 z4 | %35
 .E2 z .F2 z |1 B,2 z z z2 :|2 B,2 z4 || z6 |!f! B2 z4 | z6 | F6 | E3 (E3 | F3) (F3 | E3) (E3 | %45
 F3) (F3 | E3) (E3 | F3) (F3 | E3) (E3 | F3) (F3 | E3) (E3 | F3) (F3 | E3) (E3 | F3) (F3 | %54
 E3) (C3 | c3) (c3 | B3) (B3 | c3) (c3 | B3) (B3 | c3) (c3 | B3) B3 | c3 c3 | d3 d3 | G3 A3 | %64
 B3 (=e2 g) | f3 (=e2 g) | f3 (=e2 g) | f3 g3 | (f3 g3) | f2 z4 |!p! B2 z4 | F2 z4 | z4 z z | %73
!p! .d2 z .c2 z | .B2 z4 | .f2 z .c2 z | .A2 z4 | (E3 F3) | .F2 z4 | .E2 z .F2 z | B,2 z z2 z | %81
 f6- | f2 z4 | B6- | B2 z z2 B | B3 g3- | g2 z z2 f | B3 E3 | F3 A3 |!>(! (B6!>)! | A6) | %91
!>(! (B6!>)! | A6) |!>(! B6!>)! |!>(! !>!F6-!>)! |!p! F6- | F6- |!<(! F6- | F6-!<)! |!mf!!>(! F6- | %100
 F2!>)! z3 z |!p! .d2 z .c2 z | .B2 z4 | .f2 z .c2 z | .A2 z4 | (E3 F3) | .F2 z4 | .E2 z .F2 z | %108
 !tenuto!B,2 z!f! g3 | (f2 e) (d2 c) | (Bc)d d2 g | (f2 e) (d2 c) | (Bc)d d2 b | (ab).g (fg).e | %114
 (de).c B2 d | (cd).B (AB).G | (fg).e (de).c | Bbb bbb | aaa aaa | ggg ggg | fff fff | e2 z e2 z | %122
 d2 z4 | c2 z c2 z | d2 z4 | z2 z f2 z | z2 z e2 z | z2 z g2 z | g2 z g2 z | f3 c3 | _d6 | c6 | %132
 _d6 | c2 z2 z!p! g | (gf) z z2 g | (gf) z z2 g | (gf) z4 | z6 |!pp! !tenuto!F2 z4 | %139
 !tenuto!F2 z4 | (!fermata!F6 | !fermata!A,3) !fermata!z z z |!p! .d2 z .c2 z | .B2 z4 | %144
 .f2 z .c2 z | .A2 z4 | (E3 F3) | .F2 z4 | .E2 z .F2 z | !tenuto!B,2 z2 z z/!f!!>(! C/ | %150
[M:2/4] (C2!>)!!p! A) z | F z z3/2!f!!>(! G/ | (G2!>)!!p! A) z |[M:6/8] B z z3 z |!p! .d2 z .c2 z | %155
 .B2 z4 | z6 | z6 | .f2 z .c2 z | .A2 z4 | z6 | z6 | (E3 F3) | .F2 z4 | z6 | z6 | G3 .A.B.c | %167
 B2 z4 | z6 | z6 | z6 | z6 |!pp! .d2 z .c2 z | .B2 z4 |] %174
V:4
 z |!p! .E,2 z .B,,2 z | .F,,2 z4 | z6 | z6 | (A,6 | .G,2) z4 | .F,2 z .B,2 z | E,2 z z2 z | B,6- | %10
 B,2 z4 | E,6- | E,2 z z2 G, | (A,3 G,3) | F,2 z z2 D, | E,3 A,,3 |!>(! !>!B,,6-!>)! | B,,6- | %18
 B,,6- | B,,6- | B,,6- | B,,6 |!>(! !>!B,,B,,B,, B,,2 z!>)! |!p! !>!B,,B,,B,, B,,2 z | %24
 !>!B,,B,,B,, B,,2 z |!<(! !>!B,,2 z !>!B,,2 z | !>!B,,2 z !>!B,,2 z!<)! |!mf!!>(! B,,6- | %28
 B,,2!>)! z3 z |!p! .E,2 z .B,,2 z | .F,,2 z4 | z6 | z6 | (A,6 | .G,2) z4 | .F,2 z .B,2 z |1 %36
 E,2 z z z2 :|2!f! E,6- || E,6- | E,6- | E,6- | E,6 | E,3 E,3- | E,3 E,3- | E,3 E,3- | E,3 E,3- | %46
 E,3 E,3- | E,3 E,3- | E,3 E,3 | C,6 | C,3 C,3- | C,3 C,3- | C,3 C,3- | C,3 C,3- | C,3 (C,3 | %55
 B,,3) B,,3- | B,,3 B,,3- | B,,3 B,,3- | B,,3 B,,3- | B,,3 (B,,3 | E,3) A,3 | F,3 B,3 | G,3 C3 | %63
 C,3 D,3 | E,3 C,3 | B,,6- | B,,6 | B,,6 | B,,6 | B,,2 z4 |!p! C,2 z4 | D,2 z4 | z4 z z | %73
!p! .E,2 z .B,,2 z | .F,,2 z4 | z6 | z6 | (A,6 | .G,2) z4 | .F,2 z .B,2 z | E,2 z z2 z | B,6- | %82
 B,2 z4 | E,6- | E,2 z z2 G, | (A,3 G,3) | F,2 z z2 D, | E,3 A,,3 |!>(! !>!B,,6-!>)! | B,,6- | %90
 B,,6- | B,,6- | B,,6- | B,,6 |!>(! !>!B,,B,,B,, B,,2 z!>)! |!p! !>!B,,B,,B,, B,,2 z | %96
 !>!B,,B,,B,, B,,2 z |!<(! !>!B,,2 z !>!B,,2 z | !>!B,,2 z !>!B,,2 z!<)! |!mf!!>(! B,,6- | %100
 B,,2!>)! z3 z |!p! .E,2 z .B,,2 z | .F,,2 z4 | z6 | z6 | (A,6 | .G,2) z4 | .F,2 z .B,2 z | %108
!f! E,6- | E,6- | E,6- | E,6- | E,2 z4 | z6 | z2 z z2 E | (DE).C (B,C).A, | (G,A,).E, (E,F,).D, | %117
 C,C,C, C,C,C, | B,,B,,B,, B,,B,,B,, | A,,A,,A,, A,,A,,A,, | G,,G,,G,, G,,2 z | B,,2 z B,,2 z | %122
 E,2 z4 | B,,2 z B,,2 z | E,2 z4 | z2 z G,2 z | z2 z A,2 z | z2 z A,2 z | A,2 z =A,2 z | %129
 B,B,B, B,B,B, | B,B,B, B,B,B, | B,B,B, B,B,B, | B,B,B, B,B,B, | B,2 z4 |!p! !tenuto!B,2 z4 | %135
 !tenuto!B,2 z4 | !tenuto!B,2 z4 | z6 |!pp! !tenuto!B,2 z4 | !tenuto!B,2 z4 | !fermata!B,6- | %141
 !fermata!B,3 !fermata!z z z |!p! .E,2 z .B,,2 z | .F,,2 z4 | z6 | z6 | (A,6 | .G,2) z4 | %148
 .F,2 z .B,2 z | E,2 z2 z z/!f!!>(! B,,/ |[M:2/4] B,,2-!>)!!p! B,, z | G,, z z3/2!f!!>(! A,,/ | %152
 (A,,2!>)!!p! B,,) z |[M:6/8] E, z z3 z |!p! .E,2 z .B,,2 z | .F,,2 z4 | z6 | z6 | z6 | z6 | z6 | %161
 z6 | (A,6 | .G,2) z4 | z6 | z6 | A,,3 B,,3 | E,2 z4 | z6 | z6 | z6 | z6 |!pp! .E,2 z .B,,2 z | %173
 .E,2 z4 |] %174

